COLOR/action 16/16/distribute-unclump.svg

<svg height="16" viewBox="0 0 16 16" width="16" xmlns="http://www.w3.org/2000/svg"><g fill="#e95420" transform="matrix(.72727273 0 0 .72727273 -.727273 -.409091)"><path d="m20 17.006986h-1v-5h1z"/><path d="m16.116961 16.962134-.567473.823392-4.116961-2.837364.567473-.823392z"/><path d="m17 4.9430147v-1.4430147l-4.684434 4.013972.567473.823392z"/></g><g stroke-width=".727273"><path d="m0 5.0454545v5.8181815h8.7272727v-5.8181815zm11.636364-2.9090909v6.5454546h4.363636v-6.5454546zm-1.454546 9.4545454v2.909091h5.090909v-2.909091z" fill="#eab305"/><path d="m11.636364 2.1363636v.3636364h4.363636v-.3636364zm-11.636364 2.9090909v.3636364h8.7272727v-.3636364zm10.181818 6.5454545v.363637h5.090909v-.363637z" fill="#fff" opacity=".3"/><path d="m11.636364 8.3181818v.3636364h4.363636v-.3636364zm-11.636364 2.1818182v.363636h8.7272727v-.363636zm10.181818 3.636364v.363636h5.090909v-.363636z" opacity=".2"/></g></svg>

<?xml version="1.0" encoding="UTF-8" standalone="no"?>
<svg
   xmlns:dc="http://purl.org/dc/elements/1.1/"
   xmlns:cc="http://creativecommons.org/ns#"
   xmlns:rdf="http://www.w3.org/1999/02/22-rdf-syntax-ns#"
   xmlns:svg="http://www.w3.org/2000/svg"
   xmlns="http://www.w3.org/2000/svg"
   xmlns:sodipodi="http://sodipodi.sourceforge.net/DTD/sodipodi-0.dtd"
   xmlns:inkscape="http://www.inkscape.org/namespaces/inkscape"
   viewBox="0 0 16 16"
   version="1.1"
   id="svg16"
   sodipodi:docname="distribute-unclump.svg"
   width="16"
   height="16"
   inkscape:version="0.92.4 (5da689c313, 2019-01-14)">
  <metadata
     id="metadata22">
    <rdf:RDF>
      <cc:Work
         rdf:about="">
        <dc:format>image/svg+xml</dc:format>
        <dc:type
           rdf:resource="http://purl.org/dc/dcmitype/StillImage" />
        <dc:title></dc:title>
      </cc:Work>
    </rdf:RDF>
  </metadata>
  <defs
     id="defs20" />
  <sodipodi:namedview
     pagecolor="#ffffff"
     bordercolor="#666666"
     borderopacity="1"
     objecttolerance="10"
     gridtolerance="10"
     guidetolerance="10"
     inkscape:pageopacity="0"
     inkscape:pageshadow="2"
     inkscape:window-width="1920"
     inkscape:window-height="1016"
     id="namedview18"
     showgrid="false"
     inkscape:zoom="9.8333333"
     inkscape:cx="12"
     inkscape:cy="12"
     inkscape:window-x="0"
     inkscape:window-y="27"
     inkscape:window-maximized="1"
     inkscape:current-layer="svg16" />
  <g
     id="g8"
     style="fill:#e95420"
     transform="matrix(0.72727273,0,0,0.72727273,-0.72727273,-0.4090909)">
    <path
       d="m 20,17.006986 h -1 v -5 h 1 z"
       id="path2"
       inkscape:connector-curvature="0" />
    <path
       d="M 16.116961,16.962134 15.549488,17.785526 11.432527,14.948162 12,14.12477 Z"
       id="path4"
       inkscape:connector-curvature="0" />
    <path
       d="M 17,4.9430147 V 3.5 l -4.684434,4.013972 0.567473,0.823392 z"
       id="path6"
       inkscape:connector-curvature="0" />
  </g>
  <path
     d="M 0,5.0454545 V 10.863636 H 8.7272727 V 5.0454545 Z M 11.636364,2.1363636 V 8.6818182 H 16 V 2.1363636 Z M 10.181818,11.590909 V 14.5 h 5.090909 v -2.909091 z"
     id="path10"
     inkscape:connector-curvature="0"
     style="fill:#eab305;stroke-width:0.72727275" />
  <path
     d="M 11.636364,2.1363636 V 2.5 H 16 V 2.1363636 Z M 0,5.0454545 V 5.4090909 H 8.7272727 V 5.0454545 Z m 10.181818,6.5454545 v 0.363637 h 5.090909 v -0.363637 z"
     id="path12"
     inkscape:connector-curvature="0"
     style="opacity:0.3;fill:#ffffff;stroke-width:0.72727275" />
  <path
     d="M 11.636364,8.3181818 V 8.6818182 H 16 V 8.3181818 Z M 0,10.5 v 0.363636 H 8.7272727 V 10.5 Z m 10.181818,3.636364 V 14.5 h 5.090909 v -0.363636 z"
     id="path14"
     inkscape:connector-curvature="0"
     style="opacity:0.2;stroke-width:0.72727275" />
</svg>
